svgs/duotone/hotel.svg

<svg xmlns="http://www.w3.org/2000/svg" viewBox="0 0 512 512"><!--! Font Awesome Pro 6.4.2 by @fontawesome - https://fontawesome.com License - https://fontawesome.com/license (Commercial License) Copyright 2023 Fonticons, Inc. --><path class="fa-primary" style="fill:var(--fa-primary-color,inherit);opacity:var(--fa-primary-opacity,1);" d="M32 0C14.3 0 0 14.3 0 32S14.3 64 32 64H480c17.7 0 32-14.3 32-32s-14.3-32-32-32H32zm80 96c-8.8 0-16 7.2-16 16v32c0 8.8 7.2 16 16 16h32c8.8 0 16-7.2 16-16V112c0-8.8-7.2-16-16-16H112zm128 0c-8.8 0-16 7.2-16 16v32c0 8.8 7.2 16 16 16h32c8.8 0 16-7.2 16-16V112c0-8.8-7.2-16-16-16H240zm112 16v32c0 8.8 7.2 16 16 16h32c8.8 0 16-7.2 16-16V112c0-8.8-7.2-16-16-16H368c-8.8 0-16 7.2-16 16zM112 192c-8.8 0-16 7.2-16 16v32c0 8.8 7.2 16 16 16h32c8.8 0 16-7.2 16-16V208c0-8.8-7.2-16-16-16H112zm112 16v32c0 8.8 7.2 16 16 16h32c8.8 0 16-7.2 16-16V208c0-8.8-7.2-16-16-16H240c-8.8 0-16 7.2-16 16zm144-16c-8.8 0-16 7.2-16 16v32c0 8.8 7.2 16 16 16h32c8.8 0 16-7.2 16-16V208c0-8.8-7.2-16-16-16H368zM328 384c13.3 0 24.3-10.9 21-23.8c-10.6-41.5-48.2-72.2-93-72.2s-82.5 30.7-93 72.2c-3.3 12.8 7.8 23.8 21 23.8H328z"/><path class="fa-secondary" style="fill:var(--fa-secondary-color,inherit);opacity:var(--fa-secondary-opacity,.4);" d="M480 64H32V448c-17.7 0-32 14.3-32 32s14.3 32 32 32H208V464c0-26.5 21.5-48 48-48s48 21.5 48 48v48H480c17.7 0 32-14.3 32-32s-14.3-32-32-32V64zM96 112c0-8.8 7.2-16 16-16h32c8.8 0 16 7.2 16 16v32c0 8.8-7.2 16-16 16H112c-8.8 0-16-7.2-16-16V112zM240 96h32c8.8 0 16 7.2 16 16v32c0 8.8-7.2 16-16 16H240c-8.8 0-16-7.2-16-16V112c0-8.8 7.2-16 16-16zm112 16c0-8.8 7.2-16 16-16h32c8.8 0 16 7.2 16 16v32c0 8.8-7.2 16-16 16H368c-8.8 0-16-7.2-16-16V112zM112 192h32c8.8 0 16 7.2 16 16v32c0 8.8-7.2 16-16 16H112c-8.8 0-16-7.2-16-16V208c0-8.8 7.2-16 16-16zm112 16c0-8.8 7.2-16 16-16h32c8.8 0 16 7.2 16 16v32c0 8.8-7.2 16-16 16H240c-8.8 0-16-7.2-16-16V208zm144-16h32c8.8 0 16 7.2 16 16v32c0 8.8-7.2 16-16 16H368c-8.8 0-16-7.2-16-16V208c0-8.8 7.2-16 16-16zM328 384H184c-13.3 0-24.3-10.9-21-23.8c10.6-41.5 48.2-72.2 93-72.2s82.5 30.7 93 72.2c3.3 12.8-7.8 23.8-21 23.8z"/></svg>

<svg xmlns="http://www.w3.org/2000/svg" viewBox="0 0 512 512"><!--! Font Awesome Pro 6.1.1 by @fontawesome - https://fontawesome.com License - https://fontawesome.com/license (Commercial License) Copyright 2022 Fonticons, Inc. --><defs><style>.fa-secondary{opacity:.4}</style></defs><path class="fa-primary" d="M480 0C497.7 0 512 14.33 512 32C512 49.67 497.7 64 480 64H32C14.33 64 0 49.67 0 32C0 14.33 14.33 0 32 0H480zM144 96C152.8 96 160 103.2 160 112V144C160 152.8 152.8 160 144 160H112C103.2 160 96 152.8 96 144V112C96 103.2 103.2 96 112 96H144zM272 96C280.8 96 288 103.2 288 112V144C288 152.8 280.8 160 272 160H240C231.2 160 224 152.8 224 144V112C224 103.2 231.2 96 240 96H272zM352 112C352 103.2 359.2 96 368 96H400C408.8 96 416 103.2 416 112V144C416 152.8 408.8 160 400 160H368C359.2 160 352 152.8 352 144V112zM144 192C152.8 192 160 199.2 160 208V240C160 248.8 152.8 256 144 256H112C103.2 256 96 248.8 96 240V208C96 199.2 103.2 192 112 192H144zM224 208C224 199.2 231.2 192 240 192H272C280.8 192 288 199.2 288 208V240C288 248.8 280.8 256 272 256H240C231.2 256 224 248.8 224 240V208zM400 192C408.8 192 416 199.2 416 208V240C416 248.8 408.8 256 400 256H368C359.2 256 352 248.8 352 240V208C352 199.2 359.2 192 368 192H400zM184 384C170.7 384 159.7 373.1 162.1 360.2C173.5 318.7 211.2 288 256 288C300.8 288 338.5 318.7 349 360.2C352.3 373.1 341.3 384 328 384H184z"/><path class="fa-secondary" d="M32 64H480V448C497.7 448 512 462.3 512 480C512 497.7 497.7 512 480 512H304V448H208V512H32C14.33 512 0 497.7 0 480C0 462.3 14.33 448 32 448V64zM112 96C103.2 96 96 103.2 96 112V144C96 152.8 103.2 160 112 160H144C152.8 160 160 152.8 160 144V112C160 103.2 152.8 96 144 96H112zM224 144C224 152.8 231.2 160 240 160H272C280.8 160 288 152.8 288 144V112C288 103.2 280.8 96 272 96H240C231.2 96 224 103.2 224 112V144zM368 96C359.2 96 352 103.2 352 112V144C352 152.8 359.2 160 368 160H400C408.8 160 416 152.8 416 144V112C416 103.2 408.8 96 400 96H368zM96 240C96 248.8 103.2 256 112 256H144C152.8 256 160 248.8 160 240V208C160 199.2 152.8 192 144 192H112C103.2 192 96 199.2 96 208V240zM240 192C231.2 192 224 199.2 224 208V240C224 248.8 231.2 256 240 256H272C280.8 256 288 248.8 288 240V208C288 199.2 280.8 192 272 192H240zM352 240C352 248.8 359.2 256 368 256H400C408.8 256 416 248.8 416 240V208C416 199.2 408.8 192 400 192H368C359.2 192 352 199.2 352 208V240zM256 288C211.2 288 173.5 318.7 162.1 360.2C159.7 373.1 170.7 384 184 384H328C341.3 384 352.3 373.1 349 360.2C338.5 318.7 300.8 288 256 288z"/></svg>
